src/assets/svg-icons/bell-icon.svg

<svg width="35" height="35" viewBox="0 0 35 35" fill="none" xmlns="http://www.w3.org/2000/svg">
<path d="M17.5 0C7.8506 0 0 7.8506 0 17.5C0 27.1494 7.8506 35 17.5 35C27.1494 35 35 27.1494 35 17.5C35 7.8506 27.1494 0 17.5 0ZM17.5 28.2692C15.7416 28.2692 14.3433 27.5238 14.1556 25.9488C14.1507 25.9017 14.1557 25.8541 14.1704 25.8091C14.185 25.7641 14.209 25.7227 14.2408 25.6876C14.2726 25.6525 14.3114 25.6245 14.3547 25.6055C14.398 25.5864 14.4449 25.5767 14.4922 25.5769H20.5036C20.5514 25.5766 20.5987 25.5864 20.6425 25.6058C20.6862 25.6252 20.7252 25.6537 20.7571 25.6893C20.7889 25.725 20.8128 25.767 20.8271 25.8126C20.8414 25.8582 20.8459 25.9064 20.8401 25.9538C20.6256 27.4994 19.2399 28.2692 17.5 28.2692ZM25.7452 24.2308H9.25481C8.25865 24.2308 7.74038 22.9688 8.31334 22.2957C9.68726 20.6685 10.6582 19.9845 10.6582 15.4976C10.6582 11.3859 12.8238 9.92704 14.6125 9.21526C14.7356 9.16396 14.8466 9.08745 14.9383 8.99065C15.03 8.89386 15.1005 8.77892 15.1451 8.65325C15.4555 7.6226 16.3339 6.73077 17.5 6.73077C18.6661 6.73077 19.5428 7.6226 19.8558 8.65409C19.9007 8.77974 19.9713 8.89463 20.0631 8.99141C20.155 9.08819 20.266 9.16472 20.3892 9.21611C22.1737 9.9262 24.3435 11.3876 24.3435 15.4984C24.3435 19.9853 25.3136 20.6694 26.6875 22.2965C27.2546 22.9688 26.7355 24.2308 25.7452 24.2308Z" fill="black"/>
</svg>

<svg xmlns="http://www.w3.org/2000/svg" width="35" height="35" fill="none" viewBox="0 0 35 35"><path fill="#000" d="M17.5 0C7.85 0 0 7.85 0 17.5S7.85 35 17.5 35 35 27.15 35 17.5 27.15 0 17.5 0Zm0 28.27c-1.758 0-3.157-.746-3.344-2.321a.337.337 0 0 1 .336-.372h6.012a.338.338 0 0 1 .336.377c-.214 1.545-1.6 2.315-3.34 2.315Zm8.245-4.04H9.255c-.996 0-1.515-1.261-.942-1.934 1.374-1.627 2.345-2.311 2.345-6.798 0-4.112 2.166-5.571 3.955-6.283a.955.955 0 0 0 .532-.562c.31-1.03 1.189-1.922 2.355-1.922s2.043.892 2.356 1.923a.96.96 0 0 0 .533.562c1.785.71 3.954 2.172 3.954 6.282 0 4.487.97 5.171 2.345 6.799.567.672.047 1.934-.943 1.934Z"/></svg>
